public/img/whatsapp.svg

<svg fill="none" height="18" viewBox="0 0 18 18" width="18" xmlns="http://www.w3.org/2000/svg"><g fill="#000"><path d="m13.3183 10.3431c-.0351-.0168-1.3473-.66298-1.5805-.7469-.0952-.03419-.1972-.06756-.3056-.06756-.1772 0-.3261.0883-.442.26176-.1311.19485-.5279.6587-.6506.7973-.016.0183-.0378.0401-.0509.0401-.0118 0-.2148-.0836-.2763-.1103-1.40771-.6115-2.4762-2.08196-2.62271-2.32993-.02092-.03565-.0218-.05184-.02198-.05184.00515-.01888.05249-.06633.07691-.09082.07148-.07071.14891-.16393.22384-.2541.03547-.04272.071-.0855.10589-.12583.1087-.12647.15709-.22465.2132-.33838l.02939-.05908c.13699-.27217.01999-.50184-.01782-.57601-.03103-.06206-.58512-1.39933-.64403-1.53983-.14166-.33902-.32885-.49687-.58897-.49687-.02414 0 0 0-.10122.00426-.12326.00521-.79446.09357-1.09123.28064-.3147.19841-.84711.83087-.84711 1.94314 0 1.00105.63526 1.94624.90801 2.30571.00678.00906.01923.02747.03729.05389 1.04452 1.52545 2.34666 2.65595 3.66668 3.18325 1.27086.5077 1.87256.5663 2.21466.5663h.0001c.1438 0 .2588-.0112.3604-.0212l.0644-.0062c.439-.0389 1.4037-.5388 1.6232-1.1487.1728-.4803.2184-1.0051.1034-1.1956-.0788-.1295-.2145-.1946-.3864-.2772z"/><path d="m9.15977 0c-4.87496 0-8.841043 3.9363-8.841043 8.77466 0 1.56494.418792 3.09674 1.212133 4.43734l-1.5184839 4.4793c-.0282858.0835-.00724681.1759.054526.2388.0445909.0455.1050779.07.1668509.07.023669 0 .047513-.0035.070773-.0109l4.670654-1.4842c1.27812.6829 2.72268 1.0433 4.18465 1.0433 4.87447.0001 8.84017-3.9358 8.84017-8.77364 0-4.83836-3.9657-8.77466-8.84023-8.77466zm0 15.7206c-1.37565 0-2.70806-.3973-3.8534-1.1488-.03852-.0253-.08322-.0383-.12822-.0383-.02379 0-.04763.0036-.07083.011l-2.33971.7437.75529-2.2283c.02443-.0722.01222-.1517-.03278-.2132-.87218-1.1917-1.33323-2.5998-1.33323-4.07204 0-3.83047 3.14147-6.94683 7.00282-6.94683 3.86089 0 7.00199 3.11636 7.00199 6.94683.0001 3.83004-3.141 6.94594-7.00193 6.94594z"/></g></svg>

<svg width="18" height="18" viewBox="0 0 18 18" fill="none" xmlns="http://www.w3.org/2000/svg">
<path d="M13.3183 10.3431C13.2832 10.3263 11.971 9.68012 11.7378 9.5962C11.6426 9.56201 11.5406 9.52864 11.4322 9.52864C11.255 9.52864 11.1061 9.61694 10.9902 9.7904C10.8591 9.98525 10.4623 10.4491 10.3396 10.5877C10.3236 10.606 10.3018 10.6278 10.2887 10.6278C10.2769 10.6278 10.0739 10.5442 10.0124 10.5175C8.60469 9.906 7.5362 8.43554 7.38969 8.18757C7.36877 8.15192 7.36789 8.13573 7.36771 8.13573C7.37286 8.11685 7.4202 8.0694 7.44462 8.04491C7.5161 7.9742 7.59353 7.88098 7.66846 7.79081C7.70393 7.74809 7.73946 7.70531 7.77435 7.66498C7.88305 7.53851 7.93144 7.44033 7.98755 7.3266L8.01694 7.26752C8.15393 6.99535 8.03693 6.76568 7.99912 6.69151C7.96809 6.62945 7.414 5.29218 7.35509 5.15168C7.21343 4.81266 7.02624 4.65481 6.76612 4.65481C6.74198 4.65481 6.76612 4.65481 6.6649 4.65907C6.54164 4.66428 5.87044 4.75264 5.57367 4.93971C5.25897 5.13812 4.72656 5.77058 4.72656 6.88285C4.72656 7.8839 5.36182 8.82909 5.63457 9.18856C5.64135 9.19762 5.6538 9.21603 5.67186 9.24245C6.71638 10.7679 8.01852 11.8984 9.33854 12.4257C10.6094 12.9334 11.2111 12.992 11.5532 12.992H11.5533C11.6971 12.992 11.8121 12.9808 11.9137 12.9708L11.9781 12.9646C12.4171 12.9257 13.3818 12.4258 13.6013 11.8159C13.7741 11.3356 13.8197 10.8108 13.7047 10.6203C13.6259 10.4908 13.4902 10.4257 13.3183 10.3431Z" fill="black"/>
<path d="M9.15977 0C4.28481 0 0.318727 3.9363 0.318727 8.77466C0.318727 10.3396 0.737519 11.8714 1.53086 13.212L0.0123761 17.6913C-0.0159097 17.7748 0.00512929 17.8672 0.0669021 17.9301C0.111493 17.9756 0.17198 18.0001 0.233753 18.0001C0.257422 18.0001 0.281266 17.9966 0.304526 17.9892L4.97518 16.505C6.2533 17.1879 7.69786 17.5483 9.15983 17.5483C14.0343 17.5484 18 13.6125 18 8.77466C18 3.9363 14.0343 0 9.15977 0ZM9.15977 15.7206C7.78412 15.7206 6.45171 15.3233 5.30637 14.5718C5.26785 14.5465 5.22315 14.5335 5.17815 14.5335C5.15436 14.5335 5.13052 14.5371 5.10732 14.5445L2.76761 15.2882L3.5229 13.0599C3.54733 12.9877 3.53512 12.9082 3.49012 12.8467C2.61794 11.655 2.15689 10.2469 2.15689 8.77466C2.15689 4.94419 5.29836 1.82783 9.15971 1.82783C13.0206 1.82783 16.1617 4.94419 16.1617 8.77466C16.1618 12.6047 13.0207 15.7206 9.15977 15.7206Z" fill="black"/>
</svg>
